X:663
T:Gillan's apples
R:Jig
O:Ireland
B:O'Neill's 1110
S:O'Neill's 1110
Z:Transcription:henrik.norbeck, some arr., chords:Mike Long
M:6/8
L:1/8
K:A
B/c/|\
"D"dAF FEF|FEF FAB|"A"AFE EFE|EFE EFA|\
"D"dAF FEF|DFA d2e|"D"fed "E"cdB|"A"cAA A2:|
|:d|\
"A"cAe cAe|cAe edc|"Bm"dBf dBf|dBf fed|\
"A"cAe cAe|cAe e2a|"D"fed "E"cdB|"A"cAA A2:|
|:d|\
"A"cBA BAF|"D"dAF D2d|cBA BAF|"A"AFE E2d|\
cBA BAF|"D"DFA d2e|"D"fed "E"cdB|"A"cAA A2:|
|:d|\
"A"cAA eAA|(f/g/a)f edc|"Bm"dBB fBB|(f/g/a)f fed|\
"A"cAA eAA|"(D)"fAA "A"cea|"D"fed "E"cdB|"A"cAA A2:|
